X: 7785
T: Come In From The Rain
R: slide
M: 12/8
K: Eminor
|:B2E EFE d3 A2G|F2D DED F2G A2c|
B2E EFE d2d e2f|1 g2e f2 de3 e2d:|2 g2e f2d e3 e2f||
|:gfe b2e gfe b2e|f2d A2g f2g a2f|
gfe b2e gfe b2e|1 f2d B^cd e3 e2f:|2 f2d B^cd e3 e2d||

